src/ui/assets/icons/user.svg

<svg xmlns="http://www.w3.org/2000/svg" width="24" height="24" viewBox="0 0 24 24">
  <path fill-rule="nonzero" d="M12,12 C15.9072418,12 18.715318,13.0364023 20.3351717,15.1788288 C20.7665758,15.7493929 21,16.4451545 21,17.1604559 L21,18.2857143 C21,19.7847729 19.7847729,21 18.2857143,21 L5.71428571,21 C4.21522711,21 3,19.7847729 3,18.2857143 L3,17.160494 C3,16.445199 3.23340019,15.7494497 3.66478123,15.178891 C5.28463457,13.0364199 8.09272555,12 12,12 Z M12,14 C8.66170181,14 6.44476079,14.8182362 5.26012276,16.3850773 C5.09133017,16.6083279 5,16.8805766 5,17.160494 L5,18.2857143 C5,18.6802034 5.31979661,19 5.71428571,19 L18.2857143,19 C18.6802034,19 19,18.6802034 19,18.2857143 L19,17.1604559 C19,16.8805572 18.9086617,16.6083073 18.7398491,16.38504 C17.5552048,14.8182236 15.3382718,14 12,14 Z M12,2 C14.209139,2 16,3.790861 16,6 C16,8.209139 14.209139,10 12,10 C9.790861,10 8,8.209139 8,6 C8,3.790861 9.790861,2 12,2 Z M12,4 C10.8954305,4 10,4.8954305 10,6 C10,7.1045695 10.8954305,8 12,8 C13.1045695,8 14,7.1045695 14,6 C14,4.8954305 13.1045695,4 12,4 Z"/>
</svg>

<svg xmlns="http://www.w3.org/2000/svg" viewBox="0 0 24 24">
  <path d="M12 12c3.9 0 6.72 1.04 8.34 3.18.43.57.66 1.27.66 1.98v1.13c0 1.5-1.22 2.71-2.71 2.71H5.7A2.71 2.71 0 0 1 3 18.29v-1.13c0-.71.23-1.41.66-1.98C5.28 13.04 8.1 12 12 12Zm0 2c-3.34 0-5.56.82-6.74 2.39-.17.22-.26.5-.26.77v1.13c0 .39.32.71.71.71H18.3c.39 0 .71-.32.71-.71v-1.13c0-.28-.1-.55-.26-.77C17.56 14.82 15.34 14 12 14Zm0-12a4 4 0 1 1 0 8 4 4 0 0 1 0-8Zm0 2a2 2 0 1 0 0 4 2 2 0 0 0 0-4Z"/>
</svg>
